;FLAVOR:Marlin
;TIME:26006
;Filament used: 30.9288m
;Layer height: 0.2
;MINX:41.814
;MINY:22.812
;MINZ:0.2
;MAXX:208.187
;MAXY:187.188
;MAXZ:16.6
;Generated with Cura_SteamEngine 5.0.0
M82 ;absolute extrusion mode
G21 ; set units to millimeters
G90 ; use absolute positioning
M82 ; absolute extrusion mode
M104 S200 ; set extruder temp
M140 S60 ; set bed temp
M190 S60 ; wait for bed temp
M109 S200 ; wait for extruder temp
G28 W ; home all without mesh bed level
G80 ; mesh bed leveling
G92 E0.0 ; reset extruder distance position
G1 Y-3.0 F1000.0 ; go outside print area
G1 X60.0 E9.0 F1000.0 ; intro line
G1 X100.0 E21.5 F1000.0 ; intro line
G92 E0.0 ; reset extruder distance position
G92 E0
G92 E0
G1 F2100 E-0.8
;LAYER_COUNT:83
;LAYER:0
M107
G0 F3600 X61.902 Y49.823 Z0.2
G0 X58.769 Y53.7
;TYPE:SKIRT
G1 F2100 E0
G1 F1800 X59.224 Y53.096 E0.02515
G1 X59.797 Y52.379 E0.05568
G1 X61.902 Y49.823 E0.16581
G1 X62.353 Y49.293 E0.18896
G1 X62.998 Y48.576 E0.22103
G1 X65.214 Y46.191 E0.32931
G1 X65.739 Y45.643 E0.35456
G1 X66.363 Y45.028 E0.3837
G1 X68.767 Y42.73 E0.49431
G1 X69.305 Y42.232 E0.51869
G1 X69.997 Y41.626 E0.54929
G1 X72.489 Y39.514 E0.65793
G1 X73.084 Y39.026 E0.68353
G1 X73.783 Y38.483 E0.71297
G1 X76.482 Y36.457 E0.82521
G1 X77.013 Y36.071 E0.84705
G1 X77.746 Y35.571 E0.87656
G1 X80.572 Y33.7 E0.98928
G1 X81.131 Y33.344 E1.01133
G1 X81.934 Y32.862 E1.04248
G1 X84.816 Y31.193 E1.15325
G1 X85.421 Y30.856 E1.17628
G1 X86.22 Y30.439 E1.20626
G1 X89.155 Y28.964 E1.31551
G1 X89.862 Y28.623 E1.34162
G1 X90.682 Y28.256 E1.3715
G1 X93.712 Y26.952 E1.48121
G1 X94.373 Y26.68 E1.50498
G1 X95.244 Y26.349 E1.53598
G1 X98.377 Y25.218 E1.64676
G1 X99.04 Y24.991 E1.67007
G1 X99.867 Y24.733 E1.69888
G1 X103.086 Y23.78 E1.81054
G1 X103.829 Y23.573 E1.83619
G1 X104.312 Y23.457 E1.85272
G1 X105.594 Y23.188 E1.89628
G1 X105.806 Y23.151 E1.90344
G1 X106.892 Y23 E1.93991
G1 X107.832 Y22.898 E1.97136
G1 X108.898 Y22.843 E2.00686
G1 X110.013 Y22.812 E2.04396
G1 X139.661 Y22.812 E3.03006
G1 X140.864 Y22.833 E3.07007
G1 X142.213 Y22.902 E3.115
G1 X142.433 Y22.921 E3.12235
G1 X143.551 Y23.057 E3.1598
G1 X144.355 Y23.179 E3.18685
G1 X145.515 Y23.421 E3.22626
G1 X146.306 Y23.609 E3.25331
G1 X146.715 Y23.719 E3.26739
G1 X150.267 Y24.774 E3.39063
G1 X151.009 Y25.007 E3.4165
G1 X151.843 Y25.295 E3.44585
G1 X154.982 Y26.433 E3.5569
G1 X155.643 Y26.684 E3.58042
G1 X156.456 Y27.021 E3.60969
G1 X159.53 Y28.348 E3.72105
G1 X160.189 Y28.646 E3.7451
G1 X160.991 Y29.035 E3.77475
G1 X163.952 Y30.527 E3.88503
G1 X164.604 Y30.869 E3.90952
G1 X165.385 Y31.306 E3.93928
G1 X168.236 Y32.963 E4.04896
G1 X168.879 Y33.352 E4.07396
G1 X169.647 Y33.843 E4.10427
G1 X172.367 Y35.647 E4.21283
G1 X173.006 Y36.085 E4.2386
G1 X173.735 Y36.617 E4.26861
G1 X176.367 Y38.598 E4.37818
G1 X176.957 Y39.058 E4.40306
G1 X177.653 Y39.631 E4.43305
G1 X180.152 Y41.756 E4.54215
G1 X180.725 Y42.26 E4.56753
G1 X181.383 Y42.871 E4.5974
G1 X183.75 Y45.14 E4.70646
G1 X184.305 Y45.689 E4.73242
G1 X184.906 Y46.317 E4.76133
G1 X187.215 Y48.809 E4.87433
G1 X187.631 Y49.274 E4.89508
G1 X188.247 Y50.001 E4.92677
G1 X190.316 Y52.517 E5.03511
G1 X190.806 Y53.134 E5.06132
G1 X191.336 Y53.841 E5.09071
G1 X193.29 Y56.531 E5.20129
G1 X193.696 Y57.109 E5.22478
G1 X194.211 Y57.889 E5.25587
G1 X195.96 Y60.626 E5.3639
G1 X196.376 Y61.297 E5.39016
G1 X196.834 Y62.089 E5.42059
G1 X198.415 Y64.921 E5.52847
G1 X198.78 Y65.598 E5.55405
G1 X199.201 Y66.437 E5.58527
G1 X200.611 Y69.356 E5.69309
G1 X200.93 Y70.045 E5.71834
G1 X201.313 Y70.935 E5.75057
G1 X202.547 Y73.931 E5.85834
G1 X202.813 Y74.609 E5.88256
G1 X203.124 Y75.47 E5.91301
G1 X204.212 Y78.634 E6.02429
G1 X204.422 Y79.278 E6.04682
G1 X204.688 Y80.18 E6.0781
G1 X205.579 Y83.38 E6.18858
G1 X205.754 Y84.05 E6.21161
G1 X205.953 Y84.911 E6.24101
G1 X206.656 Y88.178 E6.35215
G1 X206.803 Y88.914 E6.37712
G1 X206.949 Y89.774 E6.40613
G1 X207.453 Y93.048 E6.51631
G1 X207.555 Y93.785 E6.54105
G1 X207.652 Y94.674 E6.5708
G1 X207.958 Y97.954 E6.68036
G1 X208.017 Y98.721 E6.70595
G1 X208.061 Y99.611 E6.73559
G1 X208.174 Y102.941 E6.84641
G1 X208.187 Y103.637 E6.86956
G1 X208.178 Y104.515 E6.89876
G1 X208.093 Y107.859 E7.01002
G1 X208.061 Y108.62 E7.03536
G1 X208.003 Y109.443 E7.0628
G1 X207.715 Y112.82 E7.17552
G1 X207.645 Y113.509 E7.19856
G1 X207.528 Y114.416 E7.22897
G1 X207.045 Y117.729 E7.34033
G1 X206.937 Y118.397 E7.36284
G1 X206.766 Y119.294 E7.39321
G1 X206.093 Y122.543 E7.50356
G1 X205.927 Y123.292 E7.52908
G1 X205.729 Y124.067 E7.55569
G1 X204.835 Y127.38 E7.66982
G1 X204.654 Y128.011 E7.69165
G1 X204.374 Y128.891 E7.72237
G1 X203.315 Y132.059 E7.83347
G1 X203.088 Y132.704 E7.85621
G1 X202.753 Y133.572 E7.88715
G1 X201.519 Y136.643 E7.99723
G1 X201.227 Y137.334 E8.02218
G1 X200.884 Y138.089 E8.04976
G1 X199.458 Y141.105 E8.16072
G1 X199.115 Y141.802 E8.18656
G1 X198.712 Y142.563 E8.2152
G1 X197.095 Y145.513 E8.32709
G1 X196.755 Y146.112 E8.35
G1 X196.296 Y146.869 E8.37945
G1 X194.522 Y149.693 E8.49037
G1 X194.129 Y150.298 E8.51436
G1 X193.593 Y151.074 E8.54573
G1 X191.687 Y153.741 E8.65476
G1 X191.254 Y154.328 E8.67902
G1 X190.708 Y155.027 E8.70852
G1 X188.596 Y157.641 E8.8203
G1 X188.163 Y158.159 E8.84275
G1 X187.526 Y158.88 E8.87475
G1 X185.324 Y161.295 E8.98345
G1 X184.815 Y161.838 E9.0082
G1 X184.2 Y162.454 E9.03716
G1 X181.795 Y164.797 E9.14883
G1 X181.276 Y165.287 E9.17257
G1 X180.599 Y165.889 E9.2027
G1 X178.127 Y168.027 E9.31141
G1 X177.52 Y168.534 E9.33771
G1 X176.825 Y169.083 E9.36717
G1 X174.178 Y171.11 E9.47806
G1 X173.621 Y171.522 E9.5011
G1 X172.852 Y172.059 E9.5323
G1 X170.11 Y173.91 E9.64233
G1 X169.507 Y174.304 E9.66629
G1 X168.791 Y174.742 E9.69421
G1 X165.89 Y176.46 E9.80634
G1 X165.247 Y176.826 E9.83095
G1 X164.476 Y177.238 E9.86003
G1 X161.554 Y178.742 E9.96933
G1 X160.851 Y179.089 E9.99541
G1 X160.051 Y179.458 E10.02471
G1 X157.016 Y180.796 E10.13503
G1 X156.329 Y181.086 E10.15983
G1 X155.529 Y181.398 E10.18839
G1 X152.403 Y182.56 E10.29931
G1 X151.715 Y182.804 E10.32359
G1 X150.793 Y183.101 E10.35581
G1 X147.707 Y184.044 E10.46313
G1 X146.964 Y184.259 E10.48886
G1 X146.114 Y184.478 E10.51805
G1 X142.865 Y185.264 E10.62923
G1 X142.18 Y185.417 E10.65258
G1 X141.258 Y185.597 E10.68382
G1 X138.081 Y186.168 E10.79118
G1 X137.269 Y186.301 E10.81855
G1 X136.441 Y186.413 E10.84634
G1 X133.068 Y186.813 E10.95931
G1 X132.398 Y186.881 E10.98171
G1 X131.504 Y186.947 E11.01153
G1 X128.206 Y187.142 E11.12141
G1 X127.466 Y187.174 E11.14605
G1 X126.527 Y187.188 E11.17728
G1 X123.205 Y187.186 E11.28777
G1 X122.529 Y187.175 E11.31026
G1 X121.606 Y187.133 E11.34099
G1 X118.335 Y186.936 E11.44998
G1 X117.543 Y186.877 E11.4764
G1 X116.712 Y186.789 E11.50419
G1 X113.358 Y186.387 E11.61654
G1 X112.682 Y186.295 E11.63923
G1 X111.761 Y186.142 E11.67029
G1 X108.534 Y185.558 E11.77936
G1 X107.803 Y185.413 E11.80415
G1 X106.889 Y185.207 E11.83531
G1 X103.746 Y184.442 E11.9429
G1 X102.983 Y184.244 E11.96912
G1 X102.112 Y183.992 E11.99927
G1 X98.987 Y183.031 E12.10802
G1 X98.231 Y182.786 E12.13445
G1 X97.448 Y182.508 E12.16208
G1 X94.306 Y181.334 E12.27364
G1 X93.629 Y181.069 E12.29782
G1 X92.812 Y180.722 E12.32735
G1 X89.789 Y179.384 E12.4373
G1 X89.133 Y179.081 E12.46133
G1 X88.241 Y178.638 E12.49446
G1 X85.354 Y177.149 E12.6025
G1 X84.713 Y176.805 E12.6267
G1 X83.948 Y176.368 E12.656
G1 X81.096 Y174.674 E12.76633
G1 X80.468 Y174.287 E12.79086
G1 X79.674 Y173.768 E12.82241
G1 X76.989 Y171.949 E12.93028
G1 X76.343 Y171.496 E12.95652
G1 X75.667 Y170.995 E12.98451
G1 X73.017 Y168.96 E13.09564
G1 X72.438 Y168.502 E13.12019
G1 X71.748 Y167.922 E13.15017
G1 X69.24 Y165.748 E13.26056
G1 X68.712 Y165.275 E13.28414
G1 X68.047 Y164.646 E13.31459
G1 X65.66 Y162.315 E13.42555
G1 X65.178 Y161.827 E13.44837
G1 X64.525 Y161.132 E13.48009
G1 X62.308 Y158.692 E13.58974
G1 X61.849 Y158.17 E13.61286
G1 X61.249 Y157.451 E13.644
G1 X59.18 Y154.883 E13.75369
G1 X58.739 Y154.318 E13.77753
G1 X58.174 Y153.55 E13.80924
G1 X56.294 Y150.91 E13.91703
G1 X55.855 Y150.273 E13.94276
G1 X55.358 Y149.505 E13.97319
G1 X53.632 Y146.75 E14.08132
G1 X53.219 Y146.065 E14.10792
G1 X52.795 Y145.317 E14.13652
G1 X51.203 Y142.404 E14.24693
G1 X50.857 Y141.746 E14.27166
G1 X50.468 Y140.954 E14.30101
G1 X49.069 Y137.984 E14.4102
G1 X48.736 Y137.247 E14.4371
G1 X48.415 Y136.48 E14.46475
G1 X47.162 Y133.353 E14.5768
G1 X46.915 Y132.706 E14.59983
G1 X46.601 Y131.811 E14.63138
G1 X45.573 Y128.723 E14.73963
G1 X45.337 Y127.982 E14.76549
G1 X45.097 Y127.137 E14.79471
G1 X44.252 Y123.985 E14.90325
G1 X44.05 Y123.183 E14.93075
G1 X43.873 Y122.383 E14.95801
G1 X43.198 Y119.106 E15.06929
G1 X43.062 Y118.385 E15.09369
G1 X42.917 Y117.482 E15.12411
G1 X42.441 Y114.182 E15.235
G1 X42.355 Y113.5 E15.25787
G1 X42.26 Y112.548 E15.28969
G1 X41.989 Y109.325 E15.39726
G1 X41.934 Y108.527 E15.42387
G1 X41.902 Y107.689 E15.45176
G1 X41.82 Y104.357 E15.56262
G1 X41.814 Y103.618 E15.5872
G1 X41.832 Y102.699 E15.61777
G1 X41.948 Y99.411 E15.7272
G1 X41.985 Y98.676 E15.75167
G1 X42.057 Y97.763 E15.78213
G1 X42.365 Y94.513 E15.89071
G1 X42.449 Y93.748 E15.91631
G1 X42.574 Y92.854 E15.94633
G1 X43.089 Y89.544 E16.05775
G1 X43.205 Y88.874 E16.08037
G1 X43.388 Y87.961 E16.11134
G1 X44.089 Y84.722 E16.22156
G1 X44.249 Y84.036 E16.24499
G1 X44.484 Y83.146 E16.27561
G1 X45.376 Y79.96 E16.38565
G1 X45.584 Y79.259 E16.40997
G1 X45.853 Y78.439 E16.43867
G1 X46.934 Y75.305 E16.54893
G1 X47.2 Y74.574 E16.57481
G1 X47.517 Y73.772 E16.60349
G1 X48.799 Y70.669 E16.71516
G1 X49.069 Y70.043 E16.73783
G1 X49.47 Y69.182 E16.76942
G1 X50.896 Y66.24 E16.87816
G1 X51.232 Y65.572 E16.90303
G1 X51.663 Y64.775 E16.93317
G1 X53.302 Y61.853 E17.0446
G1 X53.651 Y61.251 E17.06774
G1 X54.104 Y60.522 E17.09629
G1 X55.925 Y57.68 E17.20856
G1 X56.314 Y57.094 E17.23195
G1 X56.838 Y56.352 E17.26216
G1 X58.769 Y53.7 E17.37127
G1 F2100 E16.57127
G0 F3600 X66.675 Y59.571
;TYPE:SUPPORT
G1 F2100 E17.37127
G1 F1800 X66.675 Y73.207 E17.82481
G0 F3600 X65.816 Y72.009
G1 F1800 X84.014 Y72.009 E18.43008
G0 F3600 X82.677 Y73.768
G1 F1800 X82.677 Y59.012 E18.92086
G0 F3600 X82.349 Y58.674
G1 F1800 X67.483 Y58.674 E19.41531
G0 F3600 X69.342 Y57.261
G1 F1800 X69.342 Y75.517 E20.0225
G0 F3600 X68.151 Y74.676
G1 F1800 X81.679 Y74.676 E20.47245
G0 F3600 X80.01 Y75.811
G1 F1800 X80.01 Y56.969 E21.09913
G0 F3600 X77.487 Y56.007
G1 F1800 X72.345 Y56.007 E21.27016
G0 F3600 X72.009 Y56.088
G1 F1800 X72.009 Y76.69 E21.95538
G0 F3600 X74.676 Y77.098
G1 F1800 X74.676 Y55.679 E22.66778
G0 F3600 X77.343 Y55.974
G1 F1800 X77.343 Y76.806 E23.36066
G1 F2100 E22.56066
G0 F3600 X77.332 Y76.763
G0 X85.074 Y69.696
G0 X85.204 Y69.342
G1 F2100 E23.36066
G1 F1800 X64.624 Y69.342 E24.04515
G0 F3600 X64.208 Y66.675
G1 F1800 X85.62 Y66.675 E24.75732
G0 F3600 X85.344 Y68.763
G1 F1800 X85.344 Y64.017 E24.91517
G1 X85.343 Y64.008
G1 X64.488 Y64.008 E25.60881
G0 F3600 X65.465 Y61.341
G1 F1800 X84.365 Y61.341 E26.23743
G1 F2100 E25.43743
G0 F3600 X90.793 Y61.341
G1 F2100 E26.23743
G1 F1800 X159.207 Y61.341 E28.51289
G0 F3600 X159.207 Y64.008
G1 F1800 X90.793 Y64.008 E30.78834
G0 F3600 X90.793 Y66.675
G1 F1800 X159.207 Y66.675 E33.0638
G0 F3600 X159.208 Y69.342
G1 F1800 X90.793 Y69.342 E35.3393
G0 F3600 X90.793 Y72.009
G1 F1800 X159.208 Y72.009 E37.61479
G0 F3600 X159.208 Y74.676
G1 F1800 X90.793 Y74.676 E39.89028
G0 F3600 X90.793 Y77.343
G1 F1800 X159.208 Y77.343 E42.16577
G0 F3600 X159.208 Y80.01
G1 F1800 X90.793 Y80.01 E44.44126
G0 F3600 X90.794 Y82.677
G1 F1800 X159.208 Y82.677 E46.71672
G0 F3600 X159.208 Y85.344
G1 F1800 X90.794 Y85.344 E48.99218
G0 F3600 X90.794 Y88.011
G1 F1800 X159.208 Y88.011 E51.26764
G0 F3600 X159.208 Y90.678
G1 F1800 X90.794 Y90.678 E53.5431
G0 F3600 X90.794 Y93.345
G1 F1800 X123.44 Y93.345 E54.62891
G0 F3600 X122.682 Y94.104
G1 F1800 X122.682 Y28.144 E56.82275
G0 F3600 X120.015 Y28.144
G1 F1800 X120.015 Y96.768 E59.10519
G0 F3600 X120.77 Y96.012
G1 F1800 X90.794 Y96.012 E60.1022
G0 F3600 X90.794 Y98.679
G1 F1800 X118.099 Y98.679 E61.01037
G0 F3600 X117.348 Y99.431
G1 F1800 X117.348 Y28.144 E63.38138
G0 F3600 X114.681 Y28.144
G1 F1800 X114.681 Y102.094 E65.84097
G0 F3600 X115.429 Y101.346
G1 F1800 X90.794 Y101.346 E66.66033
G0 F3600 X90.794 Y104.013
G1 F1800 X113.183 Y104.013 E67.40499
G0 F3600 X114.681 Y105.976
G1 F1800 X114.681 Y140.809 E68.56354
G0 F3600 X112.014 Y140.809
G1 F1800 X112.014 Y28.144 E72.3108
G0 F3600 X109.347 Y28.144
G1 F1800 X109.347 Y140.809 E76.05805
G0 F3600 X106.68 Y140.809
G1 F1800 X106.68 Y28.144 E79.8053
G0 F3600 X104.013 Y28.703
G1 F1800 X104.013 Y140.756 E83.5322
G0 F3600 X101.346 Y140.372
G1 F1800 X101.346 Y30.145 E87.19836
G0 F3600 X102.84 Y29.337
G1 F1800 X147.154 Y29.337 E88.67225
G0 F3600 X146.685 Y29.086
G1 F1800 X146.685 Y140.721 E92.38525
G0 F3600 X144.018 Y140.809
G1 F1800 X144.018 Y28.144 E96.1325
G0 F3600 X141.351 Y28.144
G1 F1800 X141.351 Y140.809 E99.87976
G0 F3600 X138.684 Y140.809
G1 F1800 X138.684 Y28.144 E103.62701
G0 F3600 X136.017 Y28.144
G1 F1800 X136.017 Y102.815 E106.11058
G0 F3600 X136.832 Y104.013
G1 F1800 X159.209 Y104.013 E106.85484
G0 F3600 X159.209 Y106.68
G1 F1800 X134.586 Y106.68 E107.6738
G0 F3600 X133.35 Y107.917
G1 F1800 X133.35 Y140.809 E108.7678
G0 F3600 X130.683 Y140.809
G1 F1800 X130.683 Y110.586 E109.77302
G0 F3600 X131.921 Y109.347
G1 F1800 X159.209 Y109.347 E110.68062
G0 F3600 X159.209 Y112.014
G1 F1800 X129.256 Y112.014 E111.67686
G0 F3600 X128.016 Y113.255
G1 F1800 X128.016 Y140.809 E112.59331
G0 F3600 X125.349 Y140.809
G1 F1800 X125.349 Y115.778 E113.42584
G0 F3600 X126.591 Y114.681
G1 F1800 X159.209 Y114.681 E114.51072
G0 F3600 X159.209 Y117.348
G1 F1800 X90.795 Y117.348 E116.78618
G0 F3600 X90.795 Y114.681
G1 F1800 X123.388 Y114.681 E117.87023
G0 F3600 X122.682 Y113.977
G1 F1800 X122.682 Y140.809 E118.76267
G0 F3600 X120.015 Y140.809
G1 F1800 X120.015 Y111.31 E119.74381
G0 F3600 X120.721 Y112.014
G1 F1800 X90.795 Y112.014 E120.73915
G0 F3600 X90.795 Y109.347
G1 F1800 X118.053 Y109.347 E121.64575
G0 F3600 X117.348 Y108.643
G1 F1800 X117.348 Y140.809 E122.7156
G1 F2100 E121.9156
G0 F3600 X117.348 Y140.764
G0 X136.017 Y140.764
G0 X136.017 Y140.809
G1 F2100 E122.7156
G1 F1800 X136.017 Y105.202 E123.89989
G1 F2100 E123.09989
G0 F3600 X134.585 Y101.346
G1 F2100 E123.89989
G1 F1800 X159.209 Y101.346 E124.71889
G0 F3600 X159.209 Y98.679
G1 F1800 X131.918 Y98.679 E125.62659
G0 F3600 X130.683 Y97.444
G1 F1800 X130.683 Y28.144 E127.93152
G0 F3600 X128.016 Y28.144
G1 F1800 X128.016 Y94.777 E130.14774
G0 F3600 X129.251 Y96.012
G1 F1800 X159.208 Y96.012 E131.14412
G0 F3600 X159.208 Y93.345
G1 F1800 X126.584 Y93.345 E132.2292
G0 F3600 X125.349 Y92.319
G1 F1800 X125.349 Y28.144 E134.36366
G1 F2100 E133.56366
G0 F3600 X125.35 Y28.189
G0 X133.351 Y28.189
G0 X133.35 Y28.144
G1 F2100 E134.36366
G1 F1800 X133.35 Y100.111 E136.7573
G1 F2100 E135.9573
G0 F3600 X115.386 Y106.68
G1 F2100 E136.7573
G1 F1800 X90.795 Y106.68 E137.5752
G1 F2100 E136.7752
G0 F3600 X90.84 Y106.679
G0 X90.84 Y120.014
G0 X90.794 Y120.015
G1 F2100 E137.5752
G1 F1800 X159.209 Y120.015 E139.85069
G0 F3600 X159.209 Y122.682
G1 F1800 X90.794 Y122.682 E142.12618
G0 F3600 X90.794 Y125.349
G1 F1800 X159.209 Y125.349 E144.40167
G0 F3600 X159.123 Y128.016
G1 F1800 X90.871 Y128.016 E146.67174
G0 F3600 X91.363 Y130.683
G1 F1800 X158.659 Y130.683 E148.91002
G1 F2100 E148.11002
G0 F3600 X158.616 Y130.669
G0 X157.509 Y133.331
G0 X157.548 Y133.35
G1 F2100 E148.91002
G1 F1800 X92.451 Y133.35 E151.07515
G0 F3600 X93.345 Y134.801
G1 F1800 X93.345 Y34.47 E154.41218
G0 F3600 X92.972 Y34.671
G1 F1800 X157.033 Y34.671 E156.54285
G0 F3600 X157.353 Y34.846
G1 F1800 X157.353 Y133.722 E159.83148
G0 F3600 X155.729 Y136.017
G1 F1800 X94.302 Y136.017 E161.87455
G0 F3600 X96.012 Y137.669
G1 F1800 X96.012 Y33.028 E165.35493
G0 F3600 X97.906 Y32.004
G1 F1800 X152.093 Y32.004 E167.15719
G1 X152.019 Y31.966
G1 X152.019 Y139.021 E170.71786
G0 F3600 X152.583 Y138.684
G1 F1800 X97.443 Y138.684 E172.55182
G0 F3600 X98.679 Y139.359
G1 F1800 X98.679 Y31.586 E176.13637
G1 F2100 E175.33637
G0 F3600 X98.701 Y31.626
G0 X90.837 Y37.337
G0 X90.792 Y37.338
G1 F2100 E176.13637
