;FLAVOR:Marlin
;TIME:5454
;Filament used: 5.2788m
;Layer height: 0.2
;MINX:87.323
;MINY:46.197
;MINZ:0.2
;MAXX:162.678
;MAXY:163.803
;MAXZ:5.2
;Generated with Cura_SteamEngine 5.0.0
M82 ;absolute extrusion mode
G21 ; set units to millimeters
G90 ; use absolute positioning
M82 ; absolute extrusion mode
M104 S200 ; set extruder temp
M140 S60 ; set bed temp
M190 S60 ; wait for bed temp
M109 S200 ; wait for extruder temp
G28 W ; home all without mesh bed level
G80 ; mesh bed leveling
G92 E0.0 ; reset extruder distance position
G1 Y-3.0 F1000.0 ; go outside print area
G1 X60.0 E9.0 F1000.0 ; intro line
G1 X100.0 E21.5 F1000.0 ; intro line
G92 E0.0 ; reset extruder distance position
G92 E0
G92 E0
G1 F2100 E-0.8
;LAYER_COUNT:26
;LAYER:0
M107
G0 F3600 X88.204 Y55.537 Z0.2
G0 X87.324 Y59.043
;TYPE:SKIRT
G1 F2100 E0
G1 F1800 X87.333 Y58.394 E0.02159
G1 X87.408 Y57.591 E0.04841
G1 X87.564 Y56.901 E0.07194
G1 X87.701 Y56.505 E0.08588
G1 X87.991 Y55.887 E0.10858
G1 X88.204 Y55.537 E0.12221
G1 X88.611 Y55.005 E0.14449
G1 X89.347 Y54.312 E0.17811
G1 X90.011 Y53.86 E0.20483
G1 X90.503 Y53.583 E0.22361
G1 X102.422 Y47.144 E0.67418
G1 X103.145 Y46.769 E0.70127
G1 X103.553 Y46.585 E0.71616
G1 X104.038 Y46.422 E0.73318
G1 X104.953 Y46.239 E0.76421
G1 X105.48 Y46.205 E0.78178
G1 X106.121 Y46.197 E0.8031
G1 X143.876 Y46.199 E2.05884
G1 X144.667 Y46.213 E2.08515
G1 X145.136 Y46.248 E2.10079
G1 X145.639 Y46.338 E2.11779
G1 X146.491 Y46.606 E2.14749
G1 X146.981 Y46.832 E2.16544
G1 X147.549 Y47.13 E2.18677
G1 X159.403 Y53.535 E2.63491
G1 X159.977 Y53.856 E2.65679
G1 X160.621 Y54.285 E2.68252
G1 X161.159 Y54.756 E2.70631
G1 X161.441 Y55.065 E2.72022
G1 X161.839 Y55.607 E2.74259
G1 X162.053 Y55.973 E2.75669
G1 X162.334 Y56.599 E2.77951
G1 X162.596 Y57.603 E2.81402
G1 X162.667 Y58.343 E2.83875
G1 X162.678 Y58.943 E2.85871
G1 X162.675 Y145.798 E5.74751
G1 X162.663 Y146.568 E5.77313
G1 X162.623 Y147.437 E5.80206
G1 X162.555 Y148.294 E5.83066
G1 X162.41 Y149.258 E5.86308
G1 X162.28 Y149.989 E5.88777
G1 X161.995 Y151.097 E5.92582
G1 X161.773 Y151.846 E5.95181
G1 X161.409 Y152.816 E5.98627
G1 X161.088 Y153.586 E6.01401
G1 X160.739 Y154.294 E6.04027
G1 X160.239 Y155.215 E6.07512
G1 X159.797 Y155.912 E6.10257
G1 X159.185 Y156.797 E6.13836
G1 X158.68 Y157.431 E6.16532
G1 X157.966 Y158.258 E6.20166
G1 X157.197 Y159.019 E6.23764
G1 X156.599 Y159.571 E6.26471
G1 X156.041 Y160.025 E6.28864
G1 X155.128 Y160.708 E6.32656
G1 X154.46 Y161.142 E6.35306
G1 X153.535 Y161.69 E6.38881
G1 X152.534 Y162.183 E6.42593
G1 X151.808 Y162.51 E6.45241
G1 X151.05 Y162.793 E6.47932
G1 X150.029 Y163.128 E6.51506
G1 X149.245 Y163.329 E6.54198
G1 X148.199 Y163.552 E6.57755
G1 X147.102 Y163.7 E6.61437
G1 X146.314 Y163.778 E6.64071
G1 X145.35 Y163.803 E6.67278
G1 X105.815 Y163.799 E7.98772
G1 X103.972 Y163.764 E8.04903
G1 X103.347 Y163.731 E8.06985
G1 X102.34 Y163.607 E8.10359
G1 X101.526 Y163.48 E8.13099
G1 X100.736 Y163.302 E8.15793
G1 X99.739 Y163.037 E8.19224
G1 X99.06 Y162.811 E8.21604
G1 X97.995 Y162.405 E8.25395
G1 X97.313 Y162.093 E8.27889
G1 X96.295 Y161.573 E8.31691
G1 X95.365 Y161.006 E8.35314
G1 X94.741 Y160.595 E8.37799
G1 X94.133 Y160.139 E8.40327
G1 X93.274 Y159.438 E8.44015
G1 X92.757 Y158.958 E8.46361
G1 X91.961 Y158.155 E8.50122
G1 X91.287 Y157.367 E8.53571
G1 X90.772 Y156.719 E8.56324
G1 X90.168 Y155.835 E8.59885
G1 X89.745 Y155.166 E8.62517
G1 X89.383 Y154.506 E8.65021
G1 X88.895 Y153.53 E8.6865
G1 X88.494 Y152.548 E8.72178
G1 X88.214 Y151.788 E8.74872
G1 X87.903 Y150.701 E8.78632
G1 X87.725 Y149.983 E8.81093
G1 X87.541 Y148.94 E8.84615
G1 X87.43 Y148.136 E8.87315
G1 X87.376 Y147.439 E8.8964
G1 X87.323 Y145.985 E8.94479
G1 X87.324 Y59.043 E11.8365
G1 F2100 E11.0365
;MESH:bottom_cover.stl
G0 F3600 X89.858 Y59.045
G0 X90.953 Y59.045
G0 X121.108 Y73.557
G1 F2100 E11.8365
G0 F3600 X121.495 Y73.426
;TYPE:WALL-OUTER
G1 F1800 X121.411 Y72.674 E11.86166
G1 X121.483 Y71.943 E11.88609
G1 X121.719 Y71.214 E11.91158
G1 X122.103 Y70.559 E11.93683
G1 X122.623 Y70.001 E11.9622
G1 X123.248 Y69.569 E11.98747
G1 X123.951 Y69.285 E12.01269
G1 X124.679 Y69.16 E12.03726
G1 X125.439 Y69.192 E12.06256
G1 X126.175 Y69.389 E12.0879
G1 X126.847 Y69.736 E12.11305
G1 X127.432 Y70.225 E12.13841
G1 X127.896 Y70.831 E12.1638
G1 X128.211 Y71.496 E12.18827
G1 X128.383 Y72.233 E12.21344
G1 X128.391 Y72.998 E12.23889
G1 X128.234 Y73.741 E12.26415
G1 X127.918 Y74.433 E12.28945
G1 X127.477 Y75.025 E12.314
G1 X126.904 Y75.524 E12.33927
G1 X126.24 Y75.886 E12.36443
G1 X125.508 Y76.099 E12.38978
G1 X124.748 Y76.146 E12.41511
G1 X123.992 Y76.027 E12.44056
G1 X123.308 Y75.762 E12.46496
G1 X122.675 Y75.343 E12.49021
G1 X122.145 Y74.797 E12.51552
G1 X121.746 Y74.149 E12.54083
G1 X121.495 Y73.426 E12.56628
G0 F3600 X121.473 Y73.228
G0 X121.063 Y73.271
G0 X121.017 Y140.97
G0 X121.068 Y141.877
G0 X121.455 Y141.746
G1 F1800 X121.371 Y140.994 E12.59145
G1 X121.443 Y140.263 E12.61588
G1 X121.679 Y139.534 E12.64137
G1 X122.063 Y138.879 E12.66662
G1 X122.583 Y138.321 E12.69199
G1 X123.208 Y137.889 E12.71726
G1 X123.911 Y137.605 E12.74248
G1 X124.639 Y137.48 E12.76704
G1 X125.399 Y137.512 E12.79234
G1 X126.135 Y137.709 E12.81769
G1 X126.807 Y138.056 E12.84284
G1 X127.392 Y138.545 E12.8682
G1 X127.856 Y139.151 E12.89359
G1 X128.171 Y139.816 E12.91806
G1 X128.343 Y140.553 E12.94323
G1 X128.351 Y141.318 E12.96868
G1 X128.194 Y142.061 E12.99393
G1 X127.878 Y142.753 E13.01924
G1 X127.437 Y143.345 E13.04379
G1 X126.864 Y143.844 E13.06906
G1 X126.2 Y144.206 E13.09421
G1 X125.468 Y144.419 E13.11957
G1 X124.708 Y144.466 E13.1449
G1 X123.952 Y144.347 E13.17035
G1 X123.268 Y144.082 E13.19475
G1 X122.635 Y143.663 E13.22
G1 X122.105 Y143.117 E13.24531
G1 X121.706 Y142.469 E13.27062
G1 X121.455 Y141.746 E13.29607
G0 F3600 X121.433 Y141.548
G0 X121.023 Y141.591
G0 X91.131 Y146.204
G0 X90.721 Y146.203
G1 F1800 X90.792 Y147.704 E13.34605
G1 X91.02 Y149.185 E13.39589
G1 X91.4 Y150.619 E13.44523
G1 X91.938 Y152.031 E13.49549
G1 X92.617 Y153.365 E13.54527
G1 X93.436 Y154.62 E13.59512
G1 X94.383 Y155.781 E13.64495
G1 X95.446 Y156.834 E13.69471
G1 X96.617 Y157.771 E13.74459
G1 X97.878 Y158.575 E13.79434
G1 X99.221 Y159.244 E13.84424
G1 X100.638 Y159.77 E13.89451
G1 X102.077 Y160.134 E13.94388
G1 X103.559 Y160.347 E13.99368
G1 X104.985 Y160.4 E14.04114
G1 X146.002 Y160.403 E15.40537
G1 X147.511 Y160.232 E15.45588
G1 X148.995 Y159.9 E15.50646
G1 X150.429 Y159.412 E15.55684
G1 X151.807 Y158.77 E15.6074
G1 X153.105 Y157.986 E15.65784
G1 X154.315 Y157.065 E15.70842
G1 X155.416 Y156.021 E15.75888
G1 X156.401 Y154.863 E15.80944
G1 X157.253 Y153.607 E15.85992
G1 X157.965 Y152.267 E15.91039
G1 X158.537 Y150.844 E15.9614
G1 X158.94 Y149.395 E16.01143
G1 X159.19 Y147.897 E16.06194
G1 X159.275 Y146.456 E16.10995
G1 X159.277 Y58.413 E19.03827
G1 X159.237 Y58.036 E19.05088
G1 X159.121 Y57.674 E19.06352
G1 X158.923 Y57.337 E19.07652
G1 X158.666 Y57.053 E19.08926
G1 X158.24 Y56.771 E19.10626
G1 X145.372 Y49.817 E19.59275
G1 X144.802 Y49.623 E19.61277
G1 X144.418 Y49.599 E19.62557
G1 X110.917 Y49.598 E20.73982
G1 X105.497 Y49.598 E20.92009
G1 X104.903 Y49.697 E20.94012
G1 X104.547 Y49.861 E20.95315
G1 X91.675 Y56.816 E21.43977
G1 X91.367 Y57.027 E21.45219
G1 X91.096 Y57.31 E21.46522
G1 X90.896 Y57.639 E21.47803
G1 X90.772 Y57.998 E21.49066
G1 X90.724 Y58.511 E21.5078
G1 X90.725 Y66.759 E21.78213
G1 X90.724 Y74.292 E22.03268
G1 X90.721 Y146.203 E24.42445
G0 F3600 X90.73 Y146.402
G0 X91.121 Y146.193
;TYPE:WALL-INNER
G1 F1800 X91.19 Y147.664 E24.47343
G1 X91.412 Y149.103 E24.52185
G1 X91.781 Y150.496 E24.56978
G1 X92.304 Y151.869 E24.61865
G1 X92.964 Y153.165 E24.66702
G1 X93.76 Y154.384 E24.71545
G1 X94.679 Y155.512 E24.76384
G1 X95.712 Y156.535 E24.81219
G1 X96.85 Y157.445 E24.86066
G1 X98.075 Y158.227 E24.90899
G1 X99.38 Y158.876 E24.95747
G1 X100.757 Y159.388 E25.00633
G1 X102.155 Y159.741 E25.05429
G1 X103.595 Y159.948 E25.10268
G1 X104.993 Y160 E25.14921
G1 X145.98 Y160.003 E26.51244
G1 X147.445 Y159.837 E26.56148
G1 X148.887 Y159.514 E26.61063
G1 X150.28 Y159.04 E26.65957
G1 X151.619 Y158.416 E26.7087
G1 X152.88 Y157.655 E26.75769
G1 X154.055 Y156.76 E26.80681
G1 X155.125 Y155.745 E26.85587
G1 X156.082 Y154.621 E26.90497
G1 X156.91 Y153.4 E26.95403
G1 X157.602 Y152.098 E27.00308
G1 X158.157 Y150.716 E27.05261
G1 X158.549 Y149.308 E27.10122
G1 X158.792 Y147.852 E27.15032
G1 X158.875 Y146.444 E27.19723
G1 X158.877 Y58.435 E30.12442
G1 X158.801 Y57.985 E30.1396
G1 X158.599 Y57.575 E30.1548
G1 X158.27 Y57.265 E30.16984
G1 X158.042 Y57.119 E30.17884
G1 X145.196 Y50.177 E30.6645
G1 X144.736 Y50.019 E30.68067
G1 X144.418 Y49.999 E30.69127
G1 X110.917 Y49.998 E31.80552
G1 X105.514 Y49.998 E31.98522
G1 X105.032 Y50.077 E32.00147
G1 X104.737 Y50.213 E32.01227
G1 X91.884 Y57.158 E32.49818
G1 X91.518 Y57.447 E32.51369
G1 X91.26 Y57.811 E32.52853
G1 X91.145 Y58.248 E32.54356
G1 X91.125 Y58.514 E32.55243
G1 X91.121 Y146.193 E35.46865
G0 F3600 X91.131 Y146.193
G0 X120.964 Y141.036
G0 X120.973 Y141.036
G1 F1800 X121.045 Y140.221 E35.49586
G1 X121.299 Y139.408 E35.52419
G1 X121.719 Y138.675 E35.55229
G1 X122.292 Y138.046 E35.58059
G1 X122.982 Y137.559 E35.60868
G1 X123.763 Y137.233 E35.63683
G1 X124.574 Y137.085 E35.66425
G1 X125.418 Y137.112 E35.69233
G1 X126.241 Y137.323 E35.72059
G1 X126.993 Y137.702 E35.7486
G1 X127.65 Y138.239 E35.77682
G1 X128.175 Y138.91 E35.80516
G1 X128.533 Y139.647 E35.83241
G1 X128.733 Y140.465 E35.86042
G1 X128.751 Y141.316 E35.88873
G1 X128.585 Y142.146 E35.91688
G1 X128.241 Y142.921 E35.94508
G1 X127.757 Y143.586 E35.97244
G1 X127.125 Y144.147 E36.00055
G1 X126.389 Y144.558 E36.02858
G1 X125.578 Y144.804 E36.05677
G1 X124.73 Y144.866 E36.08505
G1 X123.887 Y144.742 E36.11339
G1 X123.121 Y144.454 E36.14061
G1 X122.412 Y143.995 E36.1687
G1 X121.816 Y143.394 E36.19685
G1 X121.364 Y142.677 E36.22504
G1 X121.076 Y141.874 E36.25342
G1 X120.973 Y141.036 E36.2815
G0 F3600 X120.964 Y141.036
G0 X121.004 Y72.716
G0 X121.013 Y72.716
G1 F1800 X121.085 Y71.901 E36.30871
G1 X121.339 Y71.088 E36.33704
G1 X121.759 Y70.355 E36.36514
G1 X122.332 Y69.726 E36.39344
G1 X123.022 Y69.239 E36.42153
G1 X123.803 Y68.913 E36.44968
G1 X124.614 Y68.765 E36.4771
G1 X125.458 Y68.792 E36.50518
G1 X126.281 Y69.003 E36.53344
G1 X127.033 Y69.382 E36.56145
G1 X127.69 Y69.919 E36.58967
G1 X128.215 Y70.59 E36.61801
G1 X128.573 Y71.327 E36.64526
G1 X128.773 Y72.145 E36.67327
G1 X128.791 Y72.996 E36.70158
G1 X128.625 Y73.826 E36.72973
G1 X128.281 Y74.601 E36.75794
G1 X127.797 Y75.266 E36.78529
G1 X127.165 Y75.827 E36.8134
G1 X126.429 Y76.238 E36.84144
G1 X125.618 Y76.484 E36.86962
G1 X124.77 Y76.546 E36.8979
G1 X123.927 Y76.422 E36.92624
G1 X123.161 Y76.134 E36.95346
G1 X122.452 Y75.675 E36.98155
G1 X121.857 Y75.074 E37.00968
G1 X121.404 Y74.357 E37.03789
G1 X121.116 Y73.554 E37.06626
G1 X121.013 Y72.716 E37.09435
G0 F3600 X120.63 Y72.674
;TYPE:SKIN
G1 F1800 X120.706 Y71.863 E37.12144
G1 X121.05 Y70.809 E37.15831
G1 X121.537 Y70.019 E37.18918
G1 X122.186 Y69.354 E37.22009
G1 X122.962 Y68.843 E37.25099
G1 X123.841 Y68.511 E37.28224
G1 X124.719 Y68.38 E37.31177
G1 X125.649 Y68.438 E37.34276
G1 X126.544 Y68.699 E37.37377
G1 X127.354 Y69.143 E37.40449
G1 X128.059 Y69.757 E37.43558
G1 X128.606 Y70.504 E37.46638
G1 X128.977 Y71.34 E37.4968
G1 X129.163 Y72.232 E37.52711
G1 X129.154 Y73.167 E37.5582
G1 X128.941 Y74.075 E37.58922
G1 X128.538 Y74.908 E37.62
G1 X127.985 Y75.62 E37.64999
G1 X127.27 Y76.215 E37.68093
G1 X126.519 Y76.615 E37.70923
G1 X125.725 Y76.85 E37.73677
G1 X125.195 Y76.902 E37.75448
G1 X124.584 Y76.915 E37.77481
G1 X123.679 Y76.748 E37.80541
G1 X122.857 Y76.402 E37.83508
G1 X122.108 Y75.88 E37.86544
G1 X121.476 Y75.201 E37.8963
G1 X121.005 Y74.397 E37.92729
G1 X120.718 Y73.503 E37.95852
G1 X120.63 Y72.674 E37.98624
G0 F3600 X120.591 Y140.995
G1 F1800 X120.703 Y140.016 E38.01902
G1 X121.01 Y139.129 E38.05024
G1 X121.499 Y138.338 E38.08117
G1 X122.146 Y137.674 E38.112
G1 X122.867 Y137.185 E38.14098
G1 X123.693 Y136.854 E38.17057
G1 X124.51 Y136.71 E38.19817
G1 X125.035 Y136.713 E38.21563
G1 X125.613 Y136.759 E38.23491
G1 X126.503 Y137.018 E38.26574
G1 X127.315 Y137.463 E38.29654
G1 X128.018 Y138.076 E38.32756
G1 X128.566 Y138.824 E38.3584
G1 X128.923 Y139.605 E38.38697
G1 X129.119 Y140.464 E38.41627
G1 X129.131 Y141.312 E38.44448
G1 X128.901 Y142.395 E38.4813
G1 X128.5 Y143.226 E38.51199
G1 X127.942 Y143.94 E38.54213
G1 X127.231 Y144.535 E38.57297
G1 X126.409 Y144.96 E38.60374
G1 X125.505 Y145.199 E38.63484
G1 X124.577 Y145.236 E38.66573
G1 X123.676 Y145.079 E38.69615
G1 X122.829 Y144.728 E38.72665
G1 X122.067 Y144.199 E38.7575
G1 X121.433 Y143.517 E38.78847
G1 X120.965 Y142.719 E38.81924
G1 X120.683 Y141.863 E38.84922
G1 X120.591 Y140.995 E38.87825
G0 F3600 X91.501 Y146.183
G1 F1800 X91.57 Y147.624 E38.92623
G1 X91.785 Y149.024 E38.97334
G1 X92.141 Y150.365 E39.01949
G1 X92.653 Y151.713 E39.06745
G1 X93.293 Y152.972 E39.11442
G1 X94.067 Y154.158 E39.16153
G1 X94.962 Y155.254 E39.20859
G1 X95.965 Y156.248 E39.25556
G1 X97.073 Y157.135 E39.30276
G1 X98.262 Y157.893 E39.34966
G1 X99.533 Y158.526 E39.39689
G1 X100.885 Y159.029 E39.44487
G1 X102.231 Y159.368 E39.49103
G1 X103.631 Y159.569 E39.53807
G1 X105 Y159.62 E39.58364
G1 X145.956 Y159.622 E40.94584
G1 X147.381 Y159.461 E40.99354
G1 X148.785 Y159.146 E41.0414
G1 X150.135 Y158.687 E41.08882
G1 X151.439 Y158.079 E41.13668
G1 X152.663 Y157.34 E41.18423
G1 X153.808 Y156.468 E41.2321
G1 X154.849 Y155.482 E41.27979
G1 X155.781 Y154.388 E41.32759
G1 X156.584 Y153.202 E41.37523
G1 X157.256 Y151.936 E41.4229
G1 X157.804 Y150.578 E41.4716
G1 X158.176 Y149.225 E41.51828
G1 X158.413 Y147.807 E41.56609
G1 X158.495 Y146.434 E41.61184
G1 X158.495 Y58.431 E44.53883
G1 X158.4 Y57.988 E44.5539
G1 X158.222 Y57.727 E44.56441
G1 X157.818 Y57.43 E44.58109
G1 X145.138 Y50.578 E45.06046
G1 X144.831 Y50.433 E45.07175
G1 X144.354 Y50.38 E45.08772
G1 X123.425 Y50.379 E45.78382
G1 X105.531 Y50.379 E46.37898
G1 X105.218 Y50.437 E46.38956
G1 X104.825 Y50.598 E46.40369
G1 X92.143 Y57.451 E46.88314
G1 X91.718 Y57.795 E46.90132
G1 X91.573 Y58.074 E46.91178
G1 X91.504 Y58.569 E46.92841
G1 X91.504 Y86.892 E47.87043
G1 X91.502 Y129.726 E49.2951
G1 X91.501 Y146.183 E49.84246
G0 F3600 X94.908 Y154.871
G1 F1800 X96.281 Y156.244 E49.90704
G1 X96.351 Y156.314
G0 F3600 X98.251 Y157.648
G1 F1800 X93.456 Y152.853 E50.13258
G1 X93.386 Y152.783
G0 F3600 X92.871 Y151.702
G1 F1800 X99.407 Y158.238 E50.44002
G1 X99.477 Y158.308
G0 F3600 X100.35 Y158.616
G1 F1800 X92.511 Y150.777 E50.80874
G1 X92.441 Y150.707
G0 F3600 X92.233 Y149.933
G1 F1800 X101.201 Y158.901 E51.23057
G0 F3600 X101.957 Y159.091
G1 F1800 X92.028 Y149.162 E51.6976
G0 F3600 X91.901 Y148.47
G1 F1800 X102.657 Y159.226 E52.20352
G0 F3600 X103.318 Y159.321
G1 F1800 X91.799 Y147.802 E52.74534
G0 F3600 X91.748 Y147.185
G1 F1800 X103.942 Y159.379 E53.31891
G0 F3600 X104.53 Y159.401
G1 F1800 X91.72 Y146.591 E53.92145
G0 F3600 X91.7 Y146.006
G1 F1800 X105.113 Y159.419 E54.55236
G0 F3600 X105.679 Y159.419
G1 F1800 X91.7 Y145.44 E55.20989
G0 F3600 X91.7 Y144.874
G1 F1800 X106.244 Y159.419 E55.89402
G0 F3600 X106.81 Y159.419
G1 F1800 X91.7 Y144.309 E56.60475
G0 F3600 X91.7 Y143.743
G1 F1800 X107.376 Y159.419 E57.3421
G0 F3600 X107.941 Y159.419
G1 F1800 X91.7 Y143.177 E58.10605
G0 F3600 X91.7 Y142.612
G1 F1800 X108.507 Y159.419 E58.8966
G0 F3600 X109.073 Y159.419
G1 F1800 X91.7 Y142.046 E59.71377
G0 F3600 X91.7 Y141.48
G1 F1800 X109.639 Y159.419 E60.55757
G0 F3600 X110.204 Y159.419
G1 F1800 X91.7 Y140.915 E61.42794
G0 F3600 X91.7 Y140.349
G1 F1800 X110.77 Y159.419 E62.32493
G0 F3600 X111.336 Y159.419
G1 F1800 X91.7 Y139.783 E63.24855
G0 F3600 X91.7 Y139.218
G1 F1800 X111.901 Y159.419 E64.19874
G0 F3600 X112.467 Y159.419
G1 F1800 X91.7 Y138.652 E65.17556
G0 F3600 X91.7 Y138.086
G1 F1800 X113.033 Y159.419 E66.179
G0 F3600 X113.598 Y159.419
G1 F1800 X91.7 Y137.52 E67.20904
G0 F3600 X91.7 Y136.955
G1 F1800 X114.164 Y159.419 E68.26567
G0 F3600 X114.73 Y159.419
G1 F1800 X91.7 Y136.389 E69.34893
G0 F3600 X91.7 Y135.823
G1 F1800 X115.295 Y159.419 E70.45879
G0 F3600 X115.861 Y159.419
